app/assets/images/icons/active/expand.svg

<svg width="32" height="232" viewBox="0 0 32 232" xmlns="http://www.w3.org/2000/svg" xmlns:sketch="http://www.bohemiancoding.com/sketch/ns"><title>expand</title><g sketch:type="MSPage" fill="none"><path d="M24.191 146.569l-6.511-6.463 1.853-1.853 6.463 6.413v-3.206h2.504v7.615h-7.715v-2.506h3.406zm-18.185-14.879h-2.506v-7.615h7.717v2.505h-3.358l6.463 6.463-1.853 1.853-6.463-6.362v3.156zm0 0" fill="#206FAC" sketch:type="MSShapeGroup"/><path d="M24.191 106.569l-6.511-6.463 1.853-1.853 6.463 6.413v-3.206h2.504v7.615h-7.715v-2.506h3.406zm-18.185-14.879h-2.506v-7.615h7.717v2.505h-3.358l6.463 6.463-1.853 1.853-6.463-6.362v3.156zm0 0" fill="#fff" sketch:type="MSShapeGroup"/><path d="M24.191 66.569l-6.511-6.463 1.853-1.853 6.463 6.413v-3.206h2.504v7.615h-7.715v-2.506h3.406zm-18.185-14.879h-2.506v-7.615h7.717v2.505h-3.358l6.463 6.463-1.853 1.853-6.463-6.362v3.156zm0 0" fill="#67737B" sketch:type="MSShapeGroup"/><path d="M24.191 26.569l-6.511-6.463 1.853-1.853 6.463 6.413v-3.206h2.504v7.615h-7.715v-2.506h3.406zm-18.185-14.879h-2.506v-7.615h7.717v2.505h-3.358l6.463 6.463-1.853 1.853-6.463-6.362v3.156zm0 0" fill="#3A434E" sketch:type="MSShapeGroup"/></g></svg>

<?xml version="1.0" encoding="UTF-8" standalone="no"?>
<svg width="32px" height="232px" viewBox="0 0 32 232" version="1.1" xmlns="http://www.w3.org/2000/svg" xmlns:xlink="http://www.w3.org/1999/xlink" xmlns:sketch="http://www.bohemiancoding.com/sketch/ns">
    <title>expand</title>
    <description>Created with Sketch (http://www.bohemiancoding.com/sketch)</description>
    <defs></defs>
    <g id="Functions" stroke="none" stroke-width="1" fill="none" fill-rule="evenodd" sketch:type="MSPage">
        <path d="M24.191,146.569 L17.68,140.106 L19.533,138.253 L25.996,144.666 L25.996,141.46 L28.5,141.46 L28.5,149.075 L20.785,149.075 L20.785,146.569 L24.191,146.569 L24.191,146.569 L24.191,146.569 L24.191,146.569 Z M6.006,131.69 L3.5,131.69 L3.5,124.075 L11.217,124.075 L11.217,126.58 L7.859,126.58 L14.322,133.043 L12.469,134.896 L6.006,128.534 L6.006,131.69 L6.006,131.69 Z M6.006,131.69" id="expand--lp-blue" fill="#206FAC" sketch:type="MSShapeGroup"></path>
        <path d="M24.191,106.569 L17.68,100.106 L19.533,98.253 L25.996,104.666 L25.996,101.46 L28.5,101.46 L28.5,109.075 L20.785,109.075 L20.785,106.569 L24.191,106.569 L24.191,106.569 L24.191,106.569 L24.191,106.569 Z M6.006,91.69 L3.5,91.69 L3.5,84.075 L11.217,84.075 L11.217,86.58 L7.859,86.58 L14.322,93.043 L12.469,94.896 L6.006,88.534 L6.006,91.69 L6.006,91.69 Z M6.006,91.69" id="expand--white" fill="#FFFFFF" sketch:type="MSShapeGroup"></path>
        <path d="M24.191,66.569 L17.68,60.106 L19.533,58.253 L25.996,64.666 L25.996,61.46 L28.5,61.46 L28.5,69.075 L20.785,69.075 L20.785,66.569 L24.191,66.569 L24.191,66.569 L24.191,66.569 L24.191,66.569 Z M6.006,51.69 L3.5,51.69 L3.5,44.075 L11.217,44.075 L11.217,46.58 L7.859,46.58 L14.322,53.043 L12.469,54.896 L6.006,48.534 L6.006,51.69 L6.006,51.69 Z M6.006,51.69" id="expand--body-grey" fill="#67737B" sketch:type="MSShapeGroup"></path>
        <path d="M24.191,26.569 L17.68,20.106 L19.533,18.253 L25.996,24.666 L25.996,21.46 L28.5,21.46 L28.5,29.075 L20.785,29.075 L20.785,26.569 L24.191,26.569 L24.191,26.569 L24.191,26.569 L24.191,26.569 Z M6.006,11.69 L3.5,11.69 L3.5,4.075 L11.217,4.075 L11.217,6.58 L7.859,6.58 L14.322,13.043 L12.469,14.896 L6.006,8.534 L6.006,11.69 L6.006,11.69 Z M6.006,11.69" id="expand--title-grey" fill="#3A434E" sketch:type="MSShapeGroup"></path>
    </g>
</svg>
